Numix-Light/16/status/indicator-keyboard-En-6.svg

<?xml version="1.0" encoding="UTF-8" standalone="no"?>
<svg
   xmlns:dc="http://purl.org/dc/elements/1.1/"
   xmlns:cc="http://creativecommons.org/ns#"
   xmlns:rdf="http://www.w3.org/1999/02/22-rdf-syntax-ns#"
   xmlns:svg="http://www.w3.org/2000/svg"
   xmlns="http://www.w3.org/2000/svg"
   xmlns:sodipodi="http://sodipodi.sourceforge.net/DTD/sodipodi-0.dtd"
   xmlns:inkscape="http://www.inkscape.org/namespaces/inkscape"
   viewBox="0 0 16 16"
   id="svg2"
   version="1.1"
   inkscape:version="0.91 r13725"
   sodipodi:docname="indicator-keyboard-En-6.svg">
  <metadata
     id="metadata14">
    <rdf:RDF>
      <cc:Work
         rdf:about="">
        <dc:format>image/svg+xml</dc:format>
        <dc:type
           rdf:resource="http://purl.org/dc/dcmitype/StillImage" />
      </cc:Work>
    </rdf:RDF>
  </metadata>
  <defs
     id="defs12" />
  <sodipodi:namedview
     pagecolor="#ffffff"
     bordercolor="#666666"
     borderopacity="1"
     objecttolerance="10"
     gridtolerance="10"
     guidetolerance="10"
     inkscape:pageopacity="0"
     inkscape:pageshadow="2"
     inkscape:window-width="640"
     inkscape:window-height="480"
     id="namedview10"
     showgrid="false"
     inkscape:zoom="14.75"
     inkscape:cx="8"
     inkscape:cy="8"
     inkscape:window-x="65"
     inkscape:window-y="24"
     inkscape:window-maximized="0"
     inkscape:current-layer="svg2" />
  <path
     style="fill:#353535;fill-opacity:1"
     d="M 1.5996094 0 C 0.71320937 2.9605947e-16 0 0.71320937 0 1.5996094 L 0 14.400391 C 2.9605947e-16 15.286791 0.71320937 16 1.5996094 16 L 14.400391 16 C 15.286791 16 16 15.286791 16 14.400391 L 16 1.5996094 C 16 0.71320937 15.286791 0 14.400391 0 L 1.5996094 0 z M 1.8769531 4.859375 L 5.4765625 4.859375 L 5.4765625 5.390625 L 2.4882812 5.390625 L 2.4882812 7.5585938 L 5.1523438 7.5585938 L 5.1523438 8.0800781 L 2.4882812 8.0800781 L 2.4882812 10.564453 L 5.7109375 10.564453 L 5.7109375 11.095703 L 1.8769531 11.095703 L 1.8769531 4.859375 z M 8.6152344 6.3535156 C 8.9692344 6.3535156 9.2640469 6.4038594 9.4980469 6.5058594 C 9.7380469 6.6078594 9.9264529 6.7552656 10.064453 6.9472656 C 10.208453 7.1332656 10.311094 7.3570937 10.371094 7.6210938 C 10.431094 7.8850937 10.460938 8.1761406 10.460938 8.4941406 L 10.460938 11.095703 L 9.875 11.095703 L 9.875 8.6835938 C 9.875 8.3535937 9.8507344 8.0756563 9.8027344 7.8476562 C 9.7607344 7.6196562 9.686125 7.4330625 9.578125 7.2890625 C 9.476125 7.1450625 9.3380625 7.0424219 9.1640625 6.9824219 C 8.9960625 6.9164219 8.7833906 6.8847656 8.5253906 6.8847656 C 8.2493906 6.8847656 8.0086875 6.8996875 7.8046875 6.9296875 C 7.6066875 6.9596875 7.4779687 6.9857656 7.4179688 7.0097656 L 7.4179688 11.095703 L 6.8339844 11.095703 L 6.8339844 6.6054688 C 7.0079844 6.5574688 7.2411563 6.5033594 7.5351562 6.4433594 C 7.8291563 6.3833594 8.1892344 6.3535156 8.6152344 6.3535156 z M 13.853516 8.8242188 L 13.876953 9.1464844 C 13.639053 9.1620844 13.419597 9.1993125 13.216797 9.2578125 C 13.017897 9.3124125 12.839594 9.4005844 12.683594 9.5214844 C 12.527594 9.6384843 12.396316 9.7893625 12.291016 9.9765625 C 12.185716 10.163763 12.115172 10.394969 12.076172 10.667969 C 12.181472 10.613369 12.306878 10.566344 12.455078 10.527344 C 12.603278 10.484444 12.761987 10.462891 12.929688 10.462891 C 13.148088 10.462891 13.332275 10.498159 13.484375 10.568359 C 13.636475 10.634659 13.759916 10.722838 13.853516 10.835938 C 13.947116 10.949038 14.015694 11.080316 14.058594 11.228516 C 14.101494 11.376716 14.123047 11.533466 14.123047 11.697266 C 14.123047 11.849366 14.099534 12.000244 14.052734 12.152344 C 14.005934 12.304444 13.931478 12.443559 13.830078 12.568359 C 13.732578 12.689259 13.607178 12.789187 13.455078 12.867188 C 13.306878 12.945188 13.130528 12.984375 12.923828 12.984375 C 12.498728 12.984375 12.175425 12.835463 11.953125 12.539062 C 11.734725 12.238762 11.625 11.821409 11.625 11.287109 C 11.625 10.495409 11.815059 9.8958281 12.193359 9.4863281 C 12.575559 9.0768281 13.128116 8.8554188 13.853516 8.8242188 z M 12.894531 10.794922 C 12.715131 10.794922 12.556422 10.816475 12.419922 10.859375 C 12.287322 10.898375 12.163875 10.9454 12.046875 11 C 12.039075 11.0663 12.035156 11.119203 12.035156 11.158203 L 12.035156 11.292969 C 12.035156 11.476269 12.046912 11.650653 12.070312 11.814453 C 12.097613 11.978253 12.144637 12.121294 12.210938 12.246094 C 12.281138 12.370894 12.371275 12.470822 12.484375 12.544922 C 12.597475 12.615122 12.742469 12.650391 12.917969 12.650391 C 13.062269 12.650391 13.185709 12.624919 13.287109 12.574219 C 13.388509 12.519619 13.46885 12.449081 13.53125 12.363281 C 13.59365 12.277481 13.638716 12.177553 13.666016 12.064453 C 13.697216 11.951353 13.712891 11.833784 13.712891 11.708984 C 13.712891 11.396984 13.642353 11.165778 13.501953 11.017578 C 13.365453 10.869378 13.163631 10.794922 12.894531 10.794922 z "
     id="path4" />
</svg>

<svg xmlns="http://www.w3.org/2000/svg" viewBox="0 0 16 16">
 <path d="m 1.6 0 c -0.886 0 -1.6 0.713 -1.6 1.6 l 0 12.801 c 0 0.886 0.713 1.6 1.6 1.6 l 12.801 0 c 0.886 0 1.6 -0.713 1.6 -1.6 l 0 -12.801 c 0 -0.886 -0.713 -1.6 -1.6 -1.6 l -12.801 0 z m 0.277 4.859 l 3.6 0 l 0 0.531 l -2.988 0 l 0 2.168 l 2.664 0 l 0 0.521 l -2.664 0 l 0 2.484 l 3.223 0 l 0 0.531 l -3.834 0 l 0 -6.236 z m 6.738 1.494 c 0.354 0 0.649 0.05 0.883 0.152 c 0.24 0.102 0.428 0.249 0.566 0.441 c 0.144 0.186 0.247 0.41 0.307 0.674 c 0.06 0.264 0.09 0.555 0.09 0.873 l 0 2.602 l -0.586 0 l 0 -2.412 c 0 -0.33 -0.024 -0.608 -0.072 -0.836 c -0.042 -0.228 -0.117 -0.415 -0.225 -0.559 c -0.102 -0.144 -0.24 -0.247 -0.414 -0.307 c -0.168 -0.066 -0.381 -0.098 -0.639 -0.098 c -0.276 0 -0.517 0.015 -0.721 0.045 c -0.198 0.03 -0.327 0.056 -0.387 0.08 l 0 4.086 l -0.584 0 l 0 -4.49 c 0.174 -0.048 0.407 -0.102 0.701 -0.162 c 0.294 -0.06 0.654 -0.09 1.08 -0.09 z m 5.238 2.471 l 0.023 0.322 c -0.238 0.016 -0.457 0.053 -0.66 0.111 c -0.199 0.055 -0.377 0.143 -0.533 0.264 c -0.156 0.117 -0.287 0.268 -0.393 0.455 c -0.105 0.187 -0.176 0.418 -0.215 0.691 c 0.105 -0.055 0.231 -0.102 0.379 -0.141 c 0.148 -0.043 0.307 -0.064 0.475 -0.064 c 0.218 0 0.403 0.035 0.555 0.105 c 0.152 0.066 0.276 0.154 0.369 0.268 c 0.094 0.113 0.162 0.244 0.205 0.393 c 0.043 0.148 0.064 0.305 0.064 0.469 c 0 0.152 -0.024 0.303 -0.07 0.455 c -0.047 0.152 -0.121 0.291 -0.223 0.416 c -0.098 0.121 -0.223 0.221 -0.375 0.299 c -0.148 0.078 -0.325 0.117 -0.531 0.117 c -0.425 0 -0.748 -0.149 -0.971 -0.445 c -0.218 -0.3 -0.328 -0.718 -0.328 -1.252 c 0 -0.792 0.19 -1.391 0.568 -1.801 c 0.382 -0.409 0.935 -0.631 1.66 -0.662 z m -0.959 1.971 c -0.179 0 -0.338 0.022 -0.475 0.064 c -0.133 0.039 -0.256 0.086 -0.373 0.141 c -0.008 0.066 -0.012 0.119 -0.012 0.158 l 0 0.135 c 0 0.183 0.012 0.358 0.035 0.521 c 0.027 0.164 0.074 0.307 0.141 0.432 c 0.07 0.125 0.16 0.225 0.273 0.299 c 0.113 0.07 0.258 0.105 0.434 0.105 c 0.144 0 0.268 -0.025 0.369 -0.076 c 0.101 -0.055 0.182 -0.125 0.244 -0.211 c 0.062 -0.086 0.107 -0.186 0.135 -0.299 c 0.031 -0.113 0.047 -0.231 0.047 -0.355 c 0 -0.312 -0.071 -0.543 -0.211 -0.691 c -0.136 -0.148 -0.338 -0.223 -0.607 -0.223 z" style="fill:#353535;fill-opacity:1"/>
</svg>
